symbols/web/6k/materialsymbolsoutlined/6k_wght200gradN25_40px.svg

<svg xmlns="http://www.w3.org/2000/svg" height="40" width="40"><path d="M21.458 24.458h1.334v-3.916l3.958 3.916h1.958L24 19.917l4.708-4.375h-1.875l-4.041 3.875v-3.875h-1.334Zm-8.791 0h3.916q.542 0 .855-.333.312-.333.312-.833v-2.709q0-.5-.312-.833-.313-.333-.855-.333h-3.791v-2.542h4.958v-1.333h-5.083q-.5 0-.834.333-.333.333-.333.833v6.584q0 .5.312.833.313.333.855.333Zm.125-1.166v-2.709h3.666v2.709Zm-3.667 9.916q-.958 0-1.646-.687-.687-.688-.687-1.646V9.125q0-.958.687-1.646.688-.687 1.646-.687h21.75q.958 0 1.646.687.687.688.687 1.646v21.75q0 .958-.687 1.646-.688.687-1.646.687Zm.042-1.333h21.666q.417 0 .729-.313.313-.312.313-.729V9.167q0-.417-.313-.729-.312-.313-.729-.313H9.167q-.417 0-.729.313-.313.312-.313.729v21.666q0 .417.313.729.312.313.729.313ZM8.125 8.125V31.875 8.125Z"/></svg>

<svg xmlns="http://www.w3.org/2000/svg" height="40" width="40"><path d="M21.458 24.458H22.792V20.542L26.75 24.458H28.708L24 19.917L28.708 15.542H26.833L22.792 19.417V15.542H21.458ZM12.667 24.458H16.583Q17.125 24.458 17.438 24.125Q17.75 23.792 17.75 23.292V20.583Q17.75 20.083 17.438 19.75Q17.125 19.417 16.583 19.417H12.792V16.875H17.75V15.542H12.667Q12.167 15.542 11.833 15.875Q11.5 16.208 11.5 16.708V23.292Q11.5 23.792 11.812 24.125Q12.125 24.458 12.667 24.458ZM12.792 23.292V20.583H16.458V23.292ZM9.125 33.208Q8.167 33.208 7.479 32.521Q6.792 31.833 6.792 30.875V9.125Q6.792 8.167 7.479 7.479Q8.167 6.792 9.125 6.792H30.875Q31.833 6.792 32.521 7.479Q33.208 8.167 33.208 9.125V30.875Q33.208 31.833 32.521 32.521Q31.833 33.208 30.875 33.208ZM9.167 31.875H30.833Q31.25 31.875 31.562 31.562Q31.875 31.25 31.875 30.833V9.167Q31.875 8.75 31.562 8.438Q31.25 8.125 30.833 8.125H9.167Q8.75 8.125 8.438 8.438Q8.125 8.75 8.125 9.167V30.833Q8.125 31.25 8.438 31.562Q8.75 31.875 9.167 31.875ZM8.125 8.125Q8.125 8.125 8.125 8.417Q8.125 8.708 8.125 9.167V30.833Q8.125 31.292 8.125 31.583Q8.125 31.875 8.125 31.875Q8.125 31.875 8.125 31.583Q8.125 31.292 8.125 30.833V9.167Q8.125 8.708 8.125 8.417Q8.125 8.125 8.125 8.125Z"/></svg>
